!!!COM: Palestrina, Giovanni Perluigi da
!!!OPR: Missa Jam Christus astra ascenderat
!!!OMD: Sanctus
!!!OTL: Hosanna
**kern	**kern	**kern	**kern
*Ibass	*Itenor	*Icalto	*Icant
!Bassus	!Tenor	!Altus	!Cantus
*clefF4	*clefGv2	*clefG2	*clefG2
*k[b-]	*k[b-]	*k[b-]	*k[b-]
*G:dor	*G:dor	*G:dor	*G:dor
*M3/2	*M3/2	*M3/2	*M3/2
=64	=64	=64	=64
1r	1r	1r	1g
2r	2r	2r	2b-
=65	=65	=65	=65
1r	1G	1r	1g
2r	2B-	2r	2f
=66	=66	=66	=66
1r	1G	1d	1b-
2r	2F	2f	2cc
=67	=67	=67	=67
1r	1B-	1d	2dd
.	.	.	2ff
2r	2c	2c	2ee
=68	=68	=68	=68
1r	2d	1f	2.dd
.	2f	.	.
.	.	.	4cc
2r	2e	2g	2cc
=69	=69	=69	=69
1r	1d	1a	2dd
.	.	.	2ff
2r	2A	2cc	2ee
=70	=70	=70	=70
1r	2B-	2b-	2dd
.	2F	2.a	2.cc
2r	[2G	.	.
.	.	4g	4b-
=71	=71	=71	=71
1r	2G]	1g	2b-
.	1d	.	1a
2r	.	2f#	.
=72	=72	=72	=72
1G	1r	2g	2b-
.	.	2e-	2g
2B-	2r	2d	2f
=73	=73	=73	=73
1G	1d	2.g	1b-
.	.	4b-	.
2F	2f	2a	2cc
=74	=74	=74	=74
1B-	1d	1f	2dd
.	.	.	2ff
2c	2c	2r	2ee
=75	=75	=75	=75
4d	1f	1r	2.dd
4c	.	.	.
4B-	.	.	.
4A	.	.	4cc
2G	2g	2r	2b-
=76	=76	=76	=76
1D	4a	1d	1a
.	4g	.	.
.	4f	.	.
.	4e	.	.
2D	4d	2f	2a
.	4c	.	.
=77	=77	=77	=77
2.G	2.B-	1d	2g
.	.	.	2b-
4F	4A	.	.
2E	2G	2c	2cc
=78	=78	=78	=78
1D	2A	1f	1dd
.	2d	.	.
2r	2c	2g	2ee
=79	=79	=79	=79
1r	2A	2.a	2ff
.	2c	.	2.ee
.	.	4g	.
2r	2d	2f	.
.	.	.	4dd
=80	=80	=80	=80
1r	2G	2g	1dd
.	1A	1e	.
2r	.	.	2cc#
=81	=81	=81	=81
1D	4d	1d	1dd
.	4e	.	.
.	4f	.	.
.	4g	.	.
2F	2a	2c	2r
=82	=82	=82	=82
1D	2f	2d	1a
.	2d	2f	.
2C	2e	2g	2cc
=83	=83	=83	=83
1F	2.f	2c	1a
.	.	2cc	.
.	4e	.	.
2G	2d	2b-	2g
=84	=84	=84	=84
1A	2c	2.a	1cc
.	2e	.	.
.	.	4g	.
2d	2f	4a	2dd
.	.	4b-	.
=85	=85	=85	=85
2c	2g	1cc	2ee
2F	2.a	.	2.ff
4D	.	2f	.
4E	4g	.	4ee
=86	=86	=86	=86
4F	2f	1a	1dd
4G	.	.	.
1A	1e	.	.
.	.	2a	2cc#
=87	=87	=87	=87
4D	1f	1.a	1dd
4E	.	.	.
4F	.	.	.
4G	.	.	.
2A	2e	.	2cc
=88	=88	=88	=88
2.D	1d	1.f	2b-
.	.	.	1a
4E	.	.	.
2F	2c	.	.
=89	=89	=89	=89
2G	2B-	1.d	1g
1D	1A	.	.
.	.	.	2f#
=90	=90	=90	=90
1.G	1.G	1.d	1.g
==	==	==	==
*-	*-	*-	*-
!!!CDT: 1525/^1526/-1594/2/2
!!!OCY: Italia
!!!AGN: Mass (Paraphrase)
!!!AST: renaissance, vocal
!!!ASW: Hymn
!!!PWK: Masses, Book 5
!!!RNB: Cadence finals: D
!!!YOR: Le Opere Complete, v. 15, p. 20
!!!YOO: Rome, Italy: Fratelli Scalera
!!!END: 1992//
!!!EED: John Miller
!!!YEC: Copyright 2000, John Miller
!!!YEN: United States of America
!!!YEM: Rights to all derivative electronic formats reserved.
!!!YEM: Refer to licensing agreement for further details.
!!!YEM: This file must be accompanied by the licensing agreement.
!!!YEM: A copy of the licensing agreement may be found at http://www.music-cog.ohio-state.edu/HumdrumDatabases/Palestrina/license.txt
!!!EMD: converted to Humdrum by Bret Aarden
